X:429
T: Der Deserteur (148), S. 327
N: T0317
O: Luxemburg
S: Singendes Volk, Esch-Alzette 1937, posth.]
N: Straen, fff Witry, 10.1.1933
R: historische, Kriegs- und Soldatenlieder, Liebeslied]
M: 6/8
L: 1/16
K: D
A2 | A4A2A2B2A2 | A2G2E2D4
A2 | A2A2A2d2c2B2 | B2A2A2F2z2
A2 | A4A2A2B2A2 | A2G2E2D4
A2 | A2A2A2d2c2B2 | B2A2A2F2z2
A2 | G2G2G2E2z2B2 | B2B2A2F2z2AA | A6z4

